X:1
T:Title
%%score [ ( 1 2 ) ( 3 4 ) ] { ( 5 6 ) | ( 7 8 ) }
L:1/8
Q:1/4=120
M:4/4
K:Eb
V:1 treble nm="Midi_74"
V:2 treble 
V:3 bass nm="Midi_74"
V:4 bass 
V:5 treble nm="Org."
V:6 treble 
V:7 bass 
V:8 bass 
V:1
 G8 | c4 =B4 | c8 || (e6 d2) | c4 B4 | (A2 G2) (F2 E2) |{E} D8 || (F6 G2) | A4 G2 F2 | =E8 || c8 | %11
 c4 (c2 d2) |"^John Camidge\n(1790-1859)" e4 d4 | c8 |] %14
V:2
 E8 | G4 F4 | E8 || E8 | (E2 F2) (G2 E2) | E4 B,4 | B,8 || _D8 | C4 _D4 | C8 || =E8 | F4 A4 | %12
 G4 F4 | E8 |] %14
V:3
 C8 | C4 D4 | C8 || B,8 | (C2 D2) (E2 _D2) | (C2 B,2) (A,2 G,2) | F,8 || B,8 | A,4 B,4 | G,8 || %10
 G,8 | F,4 C4 | C4 =B,4 | C8 |] %14
V:4
 C,8 | E,4 G,4 | C,8 || G,8 | A,4 G,4 | A,4 E,4 | B,,8 || B,,8 | F,,4 B,,4 | C,8 || (C,6 B,,2) | %11
 (A,,2 G,,2) F,,4 | G,,4 G,,4 | C,8 |] %14
V:5
 G8 | c4 =B4 | c8 || e6 d2 | c4 B4 | [CEA]2 [B,EG]2 [A,F]2 [G,E]2 |{E} D8 || F6 G2 | A4 G2 F2 | %9
{F} =E8 || c8 | c4 c2 d2 | e4 d4 | c8 |] %14
V:6
 [CE]8 | [CEG]4 [DFG]4 | [EG]8 || [EB]8 | E2 F2 [EG]2 [_DE]2 | x8 | B,8 || _D8 | C4 _D4 | C8 || %10
 [C=EG]8 | [CFA]4 [FA]4 | [EGc]4 [FG=B]4 | [EG]8 |] %14
V:7
 x8 | x8 | x8 || x8 | x8 | x4 B,4 |{G,} F,8 || F,8- | F,4 x4 | x8 || x8 | x8 | x8 | x8 |] %14
V:8
 C,8 | E,4 G,4 | C,8 || G,8 | A,4 G,4 | A,4 E,4 | B,,8 || B,,8 | F,,4 [B,,B,]4 | [C,G,]8 || %10
 [C,C]6 [B,,B,]2 | [A,,A,]2 [G,,G,]2 [F,,F,]4 | [G,,G,]4 [G,,G,]4 | [C,G,]8 |] %14

